src/topics/icons/jquery-mobile.svg

<?xml version="1.0" encoding="UTF-8" standalone="no"?>
<svg width="256px" height="191px" viewBox="0 0 256 191" version="1.1" xmlns="http://www.w3.org/2000/svg" xmlns:xlink="http://www.w3.org/1999/xlink" preserveAspectRatio="xMidYMid">
	<g>
		<path d="M34.337,0.0373 L217.789,0.0373 C221.805,0.0373 224.784,3.7613 223.903,7.6793 L198.047,122.6073 C197.149,126.5973 193.606,129.4323 189.517,129.4323 L7.006,129.4323 C2.524,129.4323 -0.804,125.2813 0.17,120.9063 L25.515,7.1103 C26.436,2.9773 30.103,0.0373 34.337,0.0373" fill="#0481A3"></path>
		<path d="M114.6839,31.3307 L251.1319,31.3307 C254.2479,31.3307 256.5609,34.2187 255.8809,37.2587 L232.9539,139.7807 C232.1559,143.3447 228.9929,145.8787 225.3409,145.8787 L88.4779,145.8787 C85.6599,145.8787 83.5689,143.2667 84.1869,140.5167 L107.4009,37.1597 C108.1659,33.7517 111.1919,31.3307 114.6839,31.3307" fill="#14BEF0"></path>
		<path d="M114.6839,31.3307 C111.1919,31.3307 108.1659,33.7517 107.4009,37.1597 L86.6759,129.4317 L189.5169,129.4317 C193.6059,129.4317 197.1499,126.5977 198.0469,122.6077 L218.5819,31.3307 L114.6839,31.3307 Z" fill="#73D8F4"></path>
		<path d="M70.1124,65.5352 L132.5664,65.5352 C135.9414,65.5352 138.4394,68.6752 137.6804,71.9642 L111.4964,185.3862 C110.7374,188.6722 107.8114,191.0002 104.4394,191.0002 L41.0324,191.0002 C37.9904,191.0002 35.7334,188.1772 36.4044,185.2092 L61.9734,72.0402 C62.8334,68.2362 66.2124,65.5352 70.1124,65.5352" fill="#6ABA2F"></path>
		<path d="M84.1866,140.5167 C83.5686,143.2667 85.6606,145.8797 88.4786,145.8797 L120.6166,145.8797 L124.4136,129.4317 L86.6766,129.4317 L84.1866,140.5167 Z" fill="#B8EC00"></path>
		<path d="M132.5662,65.5352 L101.0272,65.5352 L86.6762,129.4322 L124.4132,129.4322 L137.6802,71.9642 C138.4402,68.6752 135.9422,65.5352 132.5662,65.5352" fill="#FFFFFF"></path>
		<path d="M70.1123,65.5352 C66.2123,65.5352 62.8333,68.2362 61.9733,72.0402 L49.0063,129.4322 L86.6763,129.4322 L101.0273,65.5352 L70.1123,65.5352 Z" fill="#81D958"></path>
	</g>
</svg>

<svg height="191" preserveAspectRatio="xMidYMid" viewBox="0 0 256 191" width="256" xmlns="http://www.w3.org/2000/svg"><path d="m34.337.0373h183.452c4.016 0 6.995 3.724 6.114 7.642l-25.856 114.928c-.898 3.99-4.441 6.825-8.53 6.825h-182.511c-4.482 0-7.81-4.151-6.836-8.526l25.345-113.796c.921-4.133 4.588-7.073 8.822-7.073" fill="#0481a3"/><path d="m114.6839 31.3307h136.448c3.116 0 5.429 2.888 4.749 5.928l-22.927 102.522c-.798 3.564-3.961 6.098-7.613 6.098h-136.863c-2.818 0-4.909-2.612-4.291-5.362l23.214-103.357c.765-3.408 3.791-5.829 7.283-5.829" fill="#14bef0"/><path d="m114.6839 31.3307c-3.492 0-6.518 2.421-7.283 5.829l-20.725 92.272h102.841c4.089 0 7.633-2.834 8.53-6.824l20.535-91.277z" fill="#73d8f4"/><path d="m70.1124 65.5352h62.454c3.375 0 5.873 3.14 5.114 6.429l-26.184 113.422c-.759 3.286-3.685 5.614-7.057 5.614h-63.407c-3.042 0-5.299-2.823-4.628-5.791l25.569-113.169c.86-3.804 4.239-6.505 8.139-6.505" fill="#6aba2f"/><path d="m84.1866 140.5167c-.618 2.75 1.474 5.363 4.292 5.363h32.138l3.797-16.448h-37.737z" fill="#b8ec00"/><path d="m132.5662 65.5352h-31.539l-14.351 63.897h37.737l13.267-57.468c.76-3.289-1.738-6.429-5.114-6.429" fill="#fff"/><path d="m70.1123 65.5352c-3.9 0-7.279 2.701-8.139 6.505l-12.967 57.392h37.67l14.351-63.897z" fill="#81d958"/></svg>
